map_marker_monochrome/openmoji_pirate_flag.svg

<svg xmlns="http://www.w3.org/2000/svg" width="24" height="24" viewBox="0 0 24 24"> <g transform="translate(0.0 4.5) scale(0.375)">
  
  <g
     id="line-supplement"
     transform="translate(-4,-16)">
    <path
       fill="#000"
       fill-rule="evenodd"
       d="M 5,17 H 67 V 55 H 5 Z m 17.7242,1.8299 c 0.7008,0.1574 1.3075,0.6283 1.7312,1.3059 0.5735,0.9089 0.1915,1.7602 -0.2106,2.2807 C 24.103,22.6 23.949,22.7578 23.81,22.885 c 0.3138,0.3043 0.7618,0.7477 1.2776,1.3067 0.1756,0.1902 0.1769,0.4831 0.003,0.6749 l -2.2202,2.4492 c -0.0919,0.1014 -0.2213,0.1607 -0.3581,0.164 -0.1369,0.0034 -0.2691,-0.0495 -0.3659,-0.1463 l -1.397,-1.397 c -0.1255,0.0871 -0.2782,0.1854 -0.4493,0.2795 -0.4453,0.2449 -1.148,0.5367 -1.8293,0.3422 -0.5355,-0.1511 -0.9822,-0.4353 -1.2721,-0.863 -0.291,-0.4292 -0.3886,-0.9505 -0.3211,-1.5079 0.0027,-0.0217 0.0067,-0.0433 0.0122,-0.0645 0.3462,-1.3461 1.5052,-2.1601 2.7983,-2.1463 -0.0766,-0.9268 0.2289,-1.8932 0.8735,-2.5755 0.018,-0.0191 0.0376,-0.0368 0.0585,-0.0529 0.6526,-0.5022 1.396,-0.6774 2.1041,-0.5182 z m 26.6651,0.0064 c 0.7251,-0.1348 1.4882,0.053 2.14,0.5546 0.0208,0.016 0.0403,0.0336 0.0583,0.0526 0.6482,0.6852 0.9208,1.6223 0.836,2.5282 1.2844,-0.0251 2.4835,0.7207 2.8346,2.0848 0.0055,0.0212 0.0095,0.0428 0.0122,0.0646 0.146,1.2069 -0.6277,2.149 -1.724,2.4581 -0.6859,0.1955 -1.3799,-0.1065 -1.816,-0.3583 -0.1618,-0.0934 -0.3065,-0.1907 -0.4264,-0.2778 l -1.3204,1.3205 c -0.0995,0.0994 -0.2362,0.1524 -0.3767,0.1459 -0.1405,-0.0065 -0.2717,-0.0718 -0.3615,-0.18 l -2.1175,-2.5496 c -0.1605,-0.1934 -0.1526,-0.4759 0.0186,-0.66 L 48.216,22.87 c -0.141,-0.1297 -0.2991,-0.2933 -0.4437,-0.485 -0.3939,-0.5221 -0.7573,-1.3683 -0.1872,-2.2717 0.4345,-0.6941 1.0802,-1.1425 1.8042,-1.277 z m -26.458,25.5074 c 0.1558,0.0193 0.2934,0.1105 0.3718,0.2464 l 1.7471,3.0288 c 0.1129,0.1958 0.0805,0.4429 -0.0791,0.6029 l -1.0555,1.0585 c 0.3555,0.3799 0.5441,0.7872 0.6221,1.1914 0.1004,0.5209 0.007,0.9943 -0.0557,1.2967 -0.0109,0.0523 -0.0301,0.1025 -0.0568,0.1487 -0.4216,0.7289 -1.0675,1.1696 -1.8,1.2674 -0.7247,0.0967 -1.4725,-0.1497 -2.1023,-0.6701 -0.0158,-0.0131 -0.0309,-0.0272 -0.045,-0.0421 -0.3833,-0.4057 -0.6765,-0.8557 -0.8308,-1.3685 -0.0966,-0.321 -0.1351,-0.6547 -0.115,-1.0022 -1.2867,-0.0506 -2.4144,-0.7984 -2.7693,-2.1781 -0.0055,-0.0212 -0.0096,-0.0428 -0.0122,-0.0645 -0.0681,-0.5633 0.0388,-1.1045 0.3252,-1.5518 0.2869,-0.4482 0.7341,-0.7707 1.2892,-0.9276 0.9479,-0.281 1.9487,0.0184 2.5886,0.7208 l 1.5572,-1.6083 c 0.1091,-0.1127 0.2648,-0.1676 0.4205,-0.1484 z m 26.2276,0.0901 c 0.1469,-0.0181 0.2942,0.0298 0.4023,0.1308 0.6428,0.6001 1.128,1.1286 1.4524,1.4924 0.6197,-0.6754 1.5542,-0.9357 2.4888,-0.6578 1.1382,0.3225 1.8186,1.3812 1.678,2.5443 -0.0027,0.0217 -0.0067,0.0432 -0.0121,0.0643 -0.3569,1.3893 -1.6032,2.0492 -2.8789,2.0042 0.0823,0.8982 -0.1914,1.8179 -0.8365,2.5008 -0.0142,0.0149 -0.0292,0.029 -0.045,0.0421 -0.6357,0.5252 -1.393,0.7574 -2.1218,0.6472 -0.7333,-0.111 -1.3815,-0.5607 -1.8017,-1.2882 -0.004,-0.0069 -0.0078,-0.014 -0.0115,-0.0211 -0.0037,-0.0073 -0.0073,-0.0146 -0.0107,-0.0221 -0.2136,-0.47 -0.2846,-1.0049 -0.1148,-1.5551 0.1234,-0.4 0.3652,-0.7795 0.7247,-1.1328 l -1.051,-1.0503 C 46.8542,47.9657 46.8266,47.705 46.9549,47.507 l 1.8455,-2.8488 c 0.0804,-0.1242 0.2117,-0.2064 0.3585,-0.2244 z M 35.2,23.42 C 24.9,23.3255 20.31,36.09 27.6,43.08 l 0.0682,0.0682 c 0.7569,0.6775 1.262,1.592 1.433,2.593 v 2.866 c 0.0044,0.3032 -0.9173,0.6422 -1.221,0.6379 0.7134,0.51 1.8109,0.9445 3.1198,1.2657 V 48.652 c 0,-0.1326 0.0527,-0.2598 0.1464,-0.3536 0.0938,-0.0937 0.221,-0.1464 0.3536,-0.1464 0.1326,0 0.2598,0.0527 0.3536,0.1464 C 31.9473,48.3922 32,48.5194 32,48.652 v 2.0744 c 0.6371,0.1196 1.3092,0.2139 2,0.2793 V 48.652 c 0,-0.1326 0.0527,-0.2598 0.1464,-0.3536 0.0938,-0.0937 0.221,-0.1464 0.3536,-0.1464 0.1326,0 0.2598,0.0527 0.3536,0.1464 C 34.9473,48.3922 35,48.5194 35,48.652 v 2.4274 c 0.6614,0.0348 1.3325,0.0428 2,0.021 V 48.652 c 0,-0.1326 0.0527,-0.2598 0.1464,-0.3536 0.0938,-0.0937 0.221,-0.1464 0.3536,-0.1464 0.1326,0 0.2598,0.0527 0.3536,0.1464 C 37.9473,48.3922 38,48.5194 38,48.652 v 2.3927 c 0.6826,-0.0542 1.3542,-0.1418 2,-0.266 V 48.652 c 0,-0.1326 0.0527,-0.2598 0.1464,-0.3536 0.0938,-0.0937 0.221,-0.1464 0.3536,-0.1464 0.1326,0 0.2598,0.0527 0.3536,0.1464 C 40.9473,48.3922 41,48.5194 41,48.652 v 1.8986 c 1.2755,-0.3401 2.4062,-0.8454 3.2602,-1.5447 -0.4634,-0.6553 -0.8904,-1.1023 -1.2198,-1.4471 -0.8709,-0.9119 -1.0588,-1.1086 0.5688,-2.5489 9.338,-8.941 1.889,-21.5 -8.414,-21.59 z m -0.88,16.12 c 0,1.6569 -1.3431,3 -3,3 -1.6568,0 -3,-1.3431 -3,-3 0,-1.6568 1.3432,-3 3,-3 1.6569,0 3,1.3432 3,3 z m 6.36,3 c 1.6568,0 3,-1.3431 3,-3 0,-1.6568 -1.3432,-3 -3,-3 -1.6569,0 -3,1.3432 -3,3 0,1.6569 1.3431,3 3,3 z m -2.4087,2.34 c 0.3397,0.5741 -0.5214,1.0842 -0.8613,0.51 l -1.5156,-2.561 -1.516,2.561 c -0.3399,0.574 -1.2012,0.0642 -0.8613,-0.51 l 1.978,-3.343 c 0.0894,-0.1605 0.2629,-0.2556 0.3991,-0.2446 0.1362,-0.011 0.3097,0.0841 0.3991,0.2446 z"
       clip-rule="evenodd"
       id="path2" />
    <path
       fill="#000"
       d="m 43.36,51.61 c -0.2607,-2e-4 -0.511,-0.1022 -0.6976,-0.2842 -0.1866,-0.1821 -0.2948,-0.4298 -0.3014,-0.6904 l -0.0732,-4.865 c 0.166,-1.0908 0.7422,-2.077 1.611,-2.757 l 0.27,-0.2769 c 1.9212,-1.9825 2.978,-4.6457 2.939,-7.406 -0.0132,-2.9369 -1.1919,-5.7484 -3.277,-7.8166 -2.0852,-2.0683 -4.9061,-3.2241 -7.843,-3.2134 -0.7514,8e-4 -1.5013,0.0647 -2.242,0.1909 -1.9225,0.3738 -3.7094,1.2568 -5.1742,2.557 -1.4648,1.3001 -2.5536,2.9696 -3.153,4.8342 -0.5993,1.8645 -0.6871,3.8558 -0.2541,5.7659 0.4329,1.9101 1.3706,3.6689 2.7153,5.0929 0.7676,0.8052 1.732,1.817 1.732,3.004 v 5.866 c 0,0.2652 -0.1054,0.5195 -0.2929,0.7071 -0.1875,0.1875 -0.4419,0.2929 -0.7071,0.2929 -0.2652,0 -0.5196,-0.1054 -0.7071,-0.2929 -0.1875,-0.1876 -0.2929,-0.4419 -0.2929,-0.7071 v -5.866 c 0,-0.3867 -0.7822,-1.208 -1.116,-1.558 l -0.0732,-0.0767 c -1.5916,-1.6858 -2.7012,-3.7681 -3.2125,-6.0294 -0.5114,-2.2613 -0.4059,-4.6185 0.3056,-6.8251 0.7114,-2.2065 2.0026,-4.1814 3.7385,-5.7181 1.7359,-1.5367 3.8528,-2.5789 6.1294,-3.0174 0.8601,-0.1481 1.7312,-0.2231 2.604,-0.2241 3.4639,-0.0107 6.7905,1.3531 9.2501,3.7921 2.4596,2.439 3.8514,5.754 3.8699,9.2179 0.0464,3.2797 -1.2064,6.4446 -3.485,8.804 l -0.3047,0.3111 c -0.2793,0.2822 -1.024,1.032 -1.03,1.323 l 0.0732,4.84 c 0.0064,0.2651 -0.0926,0.5219 -0.2753,0.7141 -0.1827,0.1921 -0.4342,0.304 -0.6993,0.3109 z"
       id="path4" />
  </g>
  <g
     id="line"
     transform="translate(-4,-16)">
    <path
       fill="#000"
       d="M 67,56 H 5 C 4.73478,56 4.48043,55.8946 4.29289,55.7071 4.10536,55.5196 4,55.2652 4,55 V 17 C 4,16.7348 4.10536,16.4804 4.29289,16.2929 4.48043,16.1054 4.73478,16 5,16 h 62 c 0.2652,0 0.5196,0.1054 0.7071,0.2929 C 67.8946,16.4804 68,16.7348 68,17 v 38 c 0,0.2652 -0.1054,0.5196 -0.2929,0.7071 C 67.5196,55.8946 67.2652,56 67,56 Z M 6,54 H 66 V 18 H 6 Z"
       id="path7" />
  </g>
</g></svg>

<svg xmlns="http://www.w3.org/2000/svg" width="24" height="24" viewBox="0 0 24 24"> <g transform="scale(0.333333333)">  <g id="line-supplement">
    <path fill="#000" fill-rule="evenodd" d="M5 17H67V55H5V17ZM22.7242 18.8299C23.425 18.9873 24.0317 19.4582 24.4554 20.1358C25.0289 21.0447 24.6469 21.896 24.2448 22.4165C24.103 22.6 23.949 22.7578 23.81 22.885C24.1238 23.1893 24.5718 23.6327 25.0876 24.1917C25.2632 24.3819 25.2645 24.6748 25.0906 24.8666L22.8704 27.3158C22.7785 27.4172 22.6491 27.4765 22.5123 27.4798C22.3754 27.4832 22.2432 27.4303 22.1464 27.3335L20.7494 25.9365C20.6239 26.0236 20.4712 26.1219 20.3001 26.216C19.8548 26.4609 19.1521 26.7527 18.4708 26.5582C17.9353 26.4071 17.4886 26.1229 17.1987 25.6952C16.9077 25.266 16.8101 24.7447 16.8776 24.1873C16.8803 24.1656 16.8843 24.144 16.8898 24.1228C17.236 22.7767 18.395 21.9627 19.6881 21.9765C19.6115 21.0497 19.917 20.0833 20.5616 19.401C20.5796 19.3819 20.5992 19.3642 20.6201 19.3481C21.2727 18.8459 22.0161 18.6707 22.7242 18.8299ZM49.3893 18.8363C50.1144 18.7015 50.8775 18.8893 51.5293 19.3909C51.5501 19.4069 51.5696 19.4245 51.5876 19.4435C52.2358 20.1287 52.5084 21.0658 52.4236 21.9717C53.708 21.9466 54.9071 22.6924 55.2582 24.0565C55.2637 24.0777 55.2677 24.0993 55.2704 24.1211C55.4164 25.328 54.6427 26.2701 53.5464 26.5792C52.8605 26.7747 52.1665 26.4727 51.7304 26.2209C51.5686 26.1275 51.4239 26.0302 51.304 25.9431L49.9836 27.2636C49.8841 27.363 49.7474 27.416 49.6069 27.4095C49.4664 27.403 49.3352 27.3377 49.2454 27.2295L47.1279 24.6799C46.9674 24.4865 46.9753 24.204 47.1465 24.0199L48.216 22.87C48.075 22.7403 47.9169 22.5767 47.7723 22.385C47.3784 21.8629 47.015 21.0167 47.5851 20.1133C48.0196 19.4192 48.6653 18.9708 49.3893 18.8363ZM22.9313 44.3437C23.0871 44.363 23.2247 44.4542 23.3031 44.5901L25.0502 47.6189C25.1631 47.8147 25.1307 48.0618 24.9711 48.2218L23.9156 49.2803C24.2711 49.6602 24.4597 50.0675 24.5377 50.4717C24.6381 50.9926 24.5447 51.466 24.482 51.7684C24.4711 51.8207 24.4519 51.8709 24.4252 51.9171C24.0036 52.646 23.3577 53.0867 22.6252 53.1845C21.9005 53.2812 21.1527 53.0348 20.5229 52.5144C20.5071 52.5013 20.492 52.4872 20.4779 52.4723C20.0946 52.0666 19.8014 51.6166 19.6471 51.1038C19.5505 50.7828 19.512 50.4491 19.5321 50.1016C18.2454 50.051 17.1177 49.3032 16.7628 47.9235C16.7573 47.9023 16.7532 47.8807 16.7506 47.859C16.6825 47.2957 16.7894 46.7545 17.0758 46.3072C17.3627 45.859 17.8099 45.5365 18.365 45.3796C19.3129 45.0986 20.3137 45.398 20.9536 46.1004L22.5108 44.4921C22.6199 44.3794 22.7756 44.3245 22.9313 44.3437ZM49.1589 44.4338C49.3058 44.4157 49.4531 44.4636 49.5612 44.5646C50.204 45.1647 50.6892 45.6932 51.0136 46.057C51.6333 45.3816 52.5678 45.1213 53.5024 45.3992C54.6406 45.7217 55.321 46.7804 55.1804 47.9435C55.1777 47.9652 55.1737 47.9867 55.1683 48.0078C54.8114 49.3971 53.5651 50.057 52.2894 50.012C52.3717 50.9102 52.098 51.8299 51.4529 52.5128C51.4387 52.5277 51.4237 52.5418 51.4079 52.5549C50.7722 53.0801 50.0149 53.3123 49.2861 53.2021C48.5528 53.0911 47.9046 52.6414 47.4844 51.9139C47.4804 51.907 47.4766 51.8999 47.4729 51.8928C47.4692 51.8855 47.4656 51.8782 47.4622 51.8707C47.2486 51.4007 47.1776 50.8658 47.3474 50.3156C47.4708 49.9156 47.7126 49.5361 48.0721 49.1828L47.0211 48.1325C46.8542 47.9657 46.8266 47.705 46.9549 47.507L48.8004 44.6582C48.8808 44.534 49.0121 44.4518 49.1589 44.4338ZM35.2 23.42C24.9 23.3255 20.31 36.09 27.6 43.08L27.6682 43.1482C28.4251 43.8257 28.9302 44.7402 29.1012 45.7412V48.6072C29.1056 48.9104 28.1839 49.2494 27.8802 49.2451C28.5936 49.7551 29.6911 50.1896 31 50.5108V48.652C31 48.5194 31.0527 48.3922 31.1464 48.2984C31.2402 48.2047 31.3674 48.152 31.5 48.152C31.6326 48.152 31.7598 48.2047 31.8536 48.2984C31.9473 48.3922 32 48.5194 32 48.652V50.7264C32.6371 50.846 33.3092 50.9403 34 51.0057V48.652C34 48.5194 34.0527 48.3922 34.1464 48.2984C34.2402 48.2047 34.3674 48.152 34.5 48.152C34.6326 48.152 34.7598 48.2047 34.8536 48.2984C34.9473 48.3922 35 48.5194 35 48.652V51.0794C35.6614 51.1142 36.3325 51.1222 37 51.1004V48.652C37 48.5194 37.0527 48.3922 37.1464 48.2984C37.2402 48.2047 37.3674 48.152 37.5 48.152C37.6326 48.152 37.7598 48.2047 37.8536 48.2984C37.9473 48.3922 38 48.5194 38 48.652V51.0447C38.6826 50.9905 39.3542 50.9029 40 50.7787V48.652C40 48.5194 40.0527 48.3922 40.1464 48.2984C40.2402 48.2047 40.3674 48.152 40.5 48.152C40.6326 48.152 40.7598 48.2047 40.8536 48.2984C40.9473 48.3922 41 48.5194 41 48.652V50.5506C42.2755 50.2105 43.4062 49.7052 44.2602 49.0059C43.7968 48.3506 43.3698 47.9036 43.0404 47.5588C42.1695 46.6469 41.9816 46.4502 43.6092 45.0099C52.9472 36.0689 45.4982 23.5099 35.1952 23.4199L35.2 23.42ZM34.32 39.54C34.32 41.1969 32.9769 42.54 31.32 42.54C29.6632 42.54 28.32 41.1969 28.32 39.54C28.32 37.8832 29.6632 36.54 31.32 36.54C32.9769 36.54 34.32 37.8832 34.32 39.54ZM40.68 42.54C42.3368 42.54 43.68 41.1969 43.68 39.54C43.68 37.8832 42.3368 36.54 40.68 36.54C39.0231 36.54 37.68 37.8832 37.68 39.54C37.68 41.1969 39.0231 42.54 40.68 42.54ZM38.2713 44.88C38.611 45.4541 37.7499 45.9642 37.41 45.39L35.8944 42.829L34.3784 45.39C34.0385 45.964 33.1772 45.4542 33.5171 44.88L35.4951 41.537C35.5845 41.3765 35.758 41.2814 35.8942 41.2924C36.0304 41.2814 36.2039 41.3765 36.2933 41.537L38.2713 44.88Z" clip-rule="evenodd"/>
    <path fill="#000" d="M43.36 51.61C43.0993 51.6098 42.849 51.5078 42.6624 51.3258C42.4758 51.1437 42.3676 50.896 42.361 50.6354L42.2878 45.7704C42.4538 44.6796 43.03 43.6934 43.8988 43.0134L44.1688 42.7365C46.09 40.754 47.1468 38.0908 47.1078 35.3305C47.0946 32.3936 45.9159 29.5821 43.8308 27.5139C41.7456 25.4456 38.9247 24.2898 35.9878 24.3005C35.2364 24.3013 34.4865 24.3652 33.7458 24.4914C31.8233 24.8652 30.0364 25.7482 28.5716 27.0484C27.1068 28.3485 26.018 30.018 25.4186 31.8826C24.8193 33.7471 24.7315 35.7384 25.1645 37.6485C25.5974 39.5586 26.5351 41.3174 27.8798 42.7414C28.6474 43.5466 29.6118 44.5584 29.6118 45.7454V51.6114C29.6118 51.8766 29.5064 52.1309 29.3189 52.3185C29.1314 52.506 28.877 52.6114 28.6118 52.6114C28.3466 52.6114 28.0922 52.506 27.9047 52.3185C27.7172 52.1309 27.6118 51.8766 27.6118 51.6114V45.7454C27.6118 45.3587 26.8296 44.5374 26.4958 44.1874L26.4226 44.1107C24.831 42.4249 23.7214 40.3426 23.2101 38.0813C22.6987 35.82 22.8042 33.4628 23.5157 31.2562C24.2271 29.0497 25.5183 27.0748 27.2542 25.5381C28.9901 24.0014 31.107 22.9592 33.3836 22.5207C34.2437 22.3726 35.1148 22.2976 35.9876 22.2966C39.4515 22.2859 42.7781 23.6497 45.2377 26.0887C47.6973 28.5277 49.0891 31.8427 49.1076 35.3066C49.154 38.5863 47.9012 41.7512 45.6226 44.1106L45.3179 44.4217C45.0386 44.7039 44.2939 45.4537 44.2879 45.7447L44.3611 50.5847C44.3675 50.8498 44.2685 51.1066 44.0858 51.2988C43.9031 51.4909 43.6516 51.6028 43.3865 51.6097L43.36 51.61Z"/>
  </g>
  <g id="line">
    <path fill="#000" d="M67 56H5C4.73478 56 4.48043 55.8946 4.29289 55.7071C4.10536 55.5196 4 55.2652 4 55V17C4 16.7348 4.10536 16.4804 4.29289 16.2929C4.48043 16.1054 4.73478 16 5 16H67C67.2652 16 67.5196 16.1054 67.7071 16.2929C67.8946 16.4804 68 16.7348 68 17V55C68 55.2652 67.8946 55.5196 67.7071 55.7071C67.5196 55.8946 67.2652 56 67 56ZM6 54H66V18H6V54Z"/>
  </g></g></svg>
